/* XPM */
static char *_c252cd98f814842b4e59673d9583c46a4TvoMeTGM6Ox3nF[] = {
/* columns rows colors chars-per-pixel */
"80 80 95 2 ",
"   c None",
".  c #0D0C0D",
"X  c gray5",
"o  c #0E0C0E",
"O  c #0E0D0E",
"+  c #151414",
"@  c #191717",
"#  c #1C1A1A",
"$  c #331113",
"%  c #331014",
"&  c #3F1215",
"*  c #3F1116",
"=  c #0C321A",
"-  c #0C3E1F",
";  c #222020",
":  c #232020",
">  c #232120",
",  c #292726",
"<  c #2A2726",
"1  c #373432",
"2  c #373532",
"3  c #4B1317",
"4  c #571419",
"5  c #70161D",
"6  c #7D171F",
"7  c #7D181F",
"8  c #4C1F22",
"9  c #413E3C",
"0  c #423E3C",
"q  c #0B5728",
"w  c #0A7030",
"e  c #614716",
"r  c #6E561A",
"t  c #7C5A19",
"y  c #45423E",
"u  c #516923",
"i  c #4C4745",
"p  c #4C4845",
"a  c #534F4A",
"s  c #605B57",
"d  c #605C56",
"f  c #615C57",
"g  c #605B58",
"h  c #6A6560",
"j  c #6B6560",
"k  c #756F6A",
"l  c #78736C",
"z  c #7C766F",
"x  c #7C776F",
"c  c #7F7873",
"v  c #891821",
"b  c #951A22",
"n  c #941A23",
"m  c #A11B24",
"M  c #B91E28",
"N  c #BA1E28",
"B  c #BC363C",
"V  c #C61E2A",
"C  c #D2202C",
"Z  c #C72A34",
"A  c #CE313A",
"S  c #8A631A",
"D  c #8A641A",
"F  c #D53840",
"G  c #5E842C",
"H  c #B3801E",
"J  c #B3801F",
"K  c #B4801E",
"L  c #DD9D22",
"P  c #CFA025",
"I  c #DDA325",
"U  c #EBA724",
"Y  c #89827C",
"T  c #8A827C",
"R  c #8A837C",
"E  c #979187",
"W  c #989088",
"Q  c #9E978E",
"!  c #9F978E",
"~  c #9E968F",
"^  c #A59D94",
"/  c #A8A098",
"(  c #AFA79D",
")  c #B3ABA0",
"_  c #B3AAA1",
"`  c #BAB1A7",
"'  c #BDB4AA",
"]  c #C0B7AD",
"[  c #CEC4B8",
"{  c #CEC5B8",
"}  c #CEC4B9",
"|  c #CEC5B9",
" . c #D6CBBF",
".. c #E3D8CB",
"X. c #EADFD1",
/* pixels */
"                              O O O O O O O O O O O O O O O O O O O O O O O O O O O O O O O O                                                                   ",
"                              O O O O O O O O O O O O O O O O O O O O O O O O O O O O O O O O                                                                   ",
"                              O O O O O O O O O O O O O O O O O O O O O O O O O O O O O O O O                                                                   ",
"                              O O O O O O O O O O O O O O O O O O O O O O O O O O O O O O O O                                                                   ",
"                    O O O O O O O O O 7 m m m m m m m m m m m m m m m m m m m m m m % O O O O O O O O                                                           ",
"                    O O O O O O O O O m C C C C C C C C C C C C C C C C C C C C C C & O O O O O O O O O                                                         ",
"                    O O O O O O O O O m C C C C C C C C C C C C C C C C C C C C C C & O O O O O O O O O                                                         ",
"                    O O O O O O O O O m C C C C C C C C C C C C C C C C C C C C C C & O O O O O O O O O                                                         ",
"                    O O O O & v v v v 4 4 4 4 4 4 4 4 4 n C C C C C C C C C C C C C m v v v 6 O O O O O                                                         ",
"                    O O O O 4 C C C C & O O O O O O O O 5 C C C C C C C C C C C C C C C C C M O O O O O                                                         ",
"                    O O O O 4 C C C C & O O O O O O O O 5 C C C C C C C C C C C C C C C C C M O O O O O                                                         ",
"                    O O O O 4 C C C C & O O O O O O O O 5 C C C C C C C C C C C C C C C C C M O O O O O                                                         ",
"                    O O O O & v v v v $ O O O O O O O O 3 v v v v V C C C C C C C C n v v v 6 O O O O O                                                         ",
"                    O O O O O O O O O O O O O O O O O O O O O O O M C C C C C C C C & O O O O O O O O O O O O O O O O O O O O O O                               ",
"                    O O O O O O O O O O O O O O O O O O O O O O O M C C C C C C C C & O O O O O O O O O O O O O O O O O O O O O O                               ",
"                    O O O O O O O O O O O O O O O O O O O O O O O M C C C C C C C C & O O O O O O O O O O O O O O O O O O O O O O                               ",
"                    O O O O O O O O O O O O O O , , , , , , , , , B F F F A Z Z Z Z 8 # # # # # # # # # # # # # # # # # + O O O O                               ",
"                                      O O O O , X.X.X.X.X.X.X.X.X.X.X.X.X.} x x x x x x x x x x x x x x x x x x x x x x d O O O O                               ",
"                                      O O O O , X.X.X.X.X.X.X.X.X.X.X.X.X.} x x x x x x x x x x x x x x x x x x x x x x d O O O O                               ",
"                                      O O O O , X.X.X.X.X.X.X.X.X.X.X.X.X.} x x x x x x x x x x x x x x x x x x x x x x d O O O O                               ",
"                                      O O O O , X.X.X.X.X.X.X.X.X.X.X.X.X.} x x x x x x x x x x x x x x x x x x x x x x d O O O O                               ",
"                                      O O O O , X.X.X.X.x O O O O O O O O O O O O O O O O O O O O O O O O O O O O O O O O O O O O O O O O O                     ",
"                                      O O O O , X.X.X.X.x O O O O O O O O O O O O O O O O O O O O O O O O O O O O O O O O O O O O O O O O O                     ",
"                                      O O O O , X.X.X.X.x O O O O O O O O O O O O O O O O O O O O O O O O O O O O O O O O O O O O O O O O O                     ",
"                                      O O O O , X.X.X.X.x O O O O O O O O O O O O O O O O O O O O O O O O O O O O O O O O O O O O O O O O O                     ",
"                                      O O O O > E E E E a O O O O W _ _ _ _ _ _ _ _ _ _ _ _ ( R R R R R R R R R R R R R R R R R R 9 O O O O                     ",
"                                      O O O O # x x x x y O O O O } X.X.X.X.X.X.X.X.X.X.X.X..._ _ _ _ _ _ _ _ _ _ _ _ _ _ _ _ _ _ i O O O O                     ",
"                                      O O O O # x x x x y O O O O } X.X.X.X.X.X.X.X.X.X.X.X..._ _ _ _ _ _ _ _ _ _ _ _ _ _ _ _ _ _ i O O O O                     ",
"                                      O O O O # x x x x y O O O O } X.X.X.X.X.X.X.X.X.X.X.X..._ _ _ _ _ _ _ _ _ _ _ _ _ _ _ _ _ _ i O O O O                     ",
"                                      O O O O # x x x x y O O O O } X.X.X.} x x x x ` } } } ] s s s s R _ _ _ _ j s s s k _ _ _ _ i O O O O                     ",
"                                      O O O O # x x x x y O O O O } X.X.X._ O O O O R _ _ _ ~ O O O O s _ _ _ _ > O O O 1 _ _ _ _ i O O O O                     ",
"                                      O O O O # x x x x y O O O O } X.X.X._ O O O O R _ _ _ ~ O O O O s _ _ _ _ > O O O 1 _ _ _ _ i O O O O                     ",
"                                      O O O O # x x x x y O O O O } X.X.X._ O O O O R _ _ _ ~ O O O O s _ _ _ _ > O O O 1 _ _ _ _ i O O O O                     ",
"                                      O O O O # x x x x y O O O O '  . . .^ O O O O R _ _ _ ~ O O O O s _ _ _ _ > O O O 1 _ _ _ _ i O O O O                     ",
"                                      O O O O # x x x x y O O O O ~ _ _ _ R O O O O R _ _ _ ~ O O O O s _ _ _ _ > O O O 1 _ _ _ _ i O O O O                     ",
"                                      O O O O # x x x x y O O O O ~ _ _ _ R O O O O R _ _ _ ~ O O O O s _ _ _ _ > O O O 1 _ _ _ _ i O O O O                     ",
"                                      O O O O # x x x x y O O O O ~ _ _ _ R O O O O R _ _ _ ~ O O O O s _ _ _ _ > O O O 1 _ _ _ _ i O O O O                     ",
"                                      O O O O # x x x x y O O O O ~ _ _ _ R O O O O R _ _ _ ~ O O O O s _ _ _ _ > O O O 1 _ _ _ _ i O O O O                     ",
"                                      O O O O # x x x x y O O O O ~ _ _ _ R O O O O R _ _ _ ~ O O O O s _ _ _ _ > O O O 1 _ _ _ _ i O O O O                     ",
"                                      O O O O # x x x x y O O O O ~ _ _ _ R O O O O R _ _ _ ~ O O O O s _ _ _ _ > O O O 1 _ _ _ _ i O O O O                     ",
"                                      O O O O # x x x x y O O O O ~ _ _ _ R O O O O R _ _ _ ~ O O O O s _ _ _ _ > O O O 1 _ _ _ _ i O O O O                     ",
"                                      O O O O # x x x x y O O O O ~ _ _ _ R O O O O R _ _ _ ~ O O O O s _ _ _ _ > O O O 1 _ _ _ _ i O O O O                     ",
"                                      O O O O # x x x x y O O O O ~ _ _ _ _ ~ ~ ~ ~ / _ _ _ _ ~ ~ ~ ~ / _ _ _ _ ~ ~ ~ ~ ~ _ _ _ _ i O O O O                     ",
"                                      O O O O # x x x x y O O O O ~ _ _ _ _ _ _ _ _ _ _ _ _ _ _ _ _ _ _ _ _ _ _ _ _ _ _ _ _ _ _ _ i O O O O                     ",
"                                      O O O O # x x x x y O O O O ~ _ _ _ _ _ _ _ _ _ _ _ _ _ _ _ _ _ _ _ _ _ _ _ _ _ _ _ _ _ _ _ i O O O O                     ",
"                                      O O O O # x x x x y O O O O ~ _ _ _ _ _ _ _ _ _ _ _ _ _ _ _ _ _ _ _ _ _ _ _ _ _ _ _ _ _ _ _ i O O O O                     ",
"                              O O O O O O O O + 1 1 1 1 > O O O O 9 p p p p p p p p p p p p p p p p p p p p p p p p p p p p p p p > O O O O                     ",
"                              O O O O O O O O O O O O O O O O O O O O O O O O O O O O O O O O O O O O O O O O O O O O O O O O O O O O O O O                     ",
"                              O O O O O O O O O O O O O O O O O O O O O O O O O O O O O O O O O O O O O O O O O O O O O O O O O O O O O O O                     ",
"                              O O O O O O O O O O O O O O O O O O O O O O O O O O O O O O O O O O O O O O O O O O O O O O O O O O O O O O O                     ",
"                              O O O O = - - - - - - - - - - - - - r t t t t t t t t t t t t t t t t t t t t t t t t t t e O O O O O O O O O                     ",
"                              O O O O q w w w w w w w w w w w w w P U U U U U U U U U U U U U U U U U U U U U U U U U U K O O O O                               ",
"                              O O O O q w w w w w w w w w w w w w P U U U U U U U U U U U U U U U U U U U U U U U U U U K O O O O                               ",
"                              O O O O q w w w w w w w w w w w w w P U U U U U U U U U U U U U U U U U U U U U U U U U U K O O O O                               ",
"                              O O O O q w w w w w w w w w w w w w P U U U L H H H H H H H H H H H H H H H H H H H H H H D O O O O                               ",
"                              O O O O q w w w w w w w w w w w w w P U U U K O O O O O O O O O O O O O O O O O O O O O O O O O O O                               ",
"                              O O O O q w w w w w w w w w w w w w P U U U K O O O O O O O O O O O O O O O O O O O O O O O O O O O                               ",
"                              O O O O q w w w w w w w w w w w w w P U U U K O O O O O O O O O O O O O O O O O O O O O O O O O O O                               ",
"                              O O O O q w w w w w w w w w w w w w P U U U K O O O O O O O O O O O O O O O O O O O O O O O O O O O                               ",
"                              O O O O q w w w w w w w w w w w w w P U U U K O O O O d x x x x x x x x x x x x x x x x x d O O O O                               ",
"                              O O O O q w w w w w w w w w w w w w P U U U K O O O O d x x x x x x x x x x x x x x x x x d O O O O                               ",
"                              O O O O q w w w w w w w w w w w w w P U U U K O O O O d x x x x x x x x x x x x x x x x x d O O O O                               ",
"                              O O O O q w w w w w w w w w w w w w P U U U K O O O O d x x x x x x x x x x x x x x x x x d O O O O                               ",
"                              O O O O q w w w w w w w w w w w w w P U U U K O O O O d x x x x x x x x x x x x x x x x x d O O O O                               ",
"                              O O O O q w w w w w w w w w w w w w P U U U K O O O O d x x x x x x x x x x x x x x x x x d O O O O                               ",
"                              O O O O q w w w w w w w w w w w w w P U U U K O O O O d x x x x x x x x x x x x x x x x x d O O O O                               ",
"                              O O O O q w w w w w w w w w w w w w P U U U K O O O O d x x x x x x x x x x x x x x x x x d O O O O                               ",
"                              O O O O q w w w w w w w w w w w w w P U U U K O O O O , 1 1 1 1 1 1 1 1 j ~ ~ ~ ~ ~ ~ ~ ~ l O O O O                               ",
"                              O O O O q w w w w w w w w w w w w w P U U U K O O O O O O O O O O O O O s _ _ _ _ _ _ _ _ R O O O O                               ",
"                              O O O O q w w w w w w w w w w w w w P U U U K O O O O O O O O O O O O O s _ _ _ _ _ _ _ _ R O O O O                               ",
"                              O O O O q w w w w w w w w w w w w w P U U U K O O O O O O O O O O O O O s _ _ _ _ _ _ _ _ R O O O O                               ",
"                              O O O O u G G G G G G G G G G G G G I U U U K O O O O O O O O O O O O O s _ _ _ _ c k k k g O O O O                               ",
"                              O O O O H U U U U U U U U U U U U U U U U U K O O O O O O O O O O O O O s _ _ _ _ > O O O O O O O O                               ",
"                              O O O O H U U U U U U U U U U U U U U U U U K O O O O O O O O O O O O O s _ _ _ _ > O O O O O O O O                               ",
"                              O O O O H U U U U U U U U U U U U U U U U U K O O O O O O O O O O O O O s _ _ _ _ > O O O O O O O O                               ",
"                              O O O O S H H H H H H H H H H H H H H H H H D O O O O O O O O O O O O O p R R R R @ O O O O O O O O                               ",
"                              O O O O O O O O O O O O O O O O O O O O O O O O O O O           O O O O O O O O O O O O O O                                       ",
"                              O O O O O O O O O O O O O O O O O O O O O O O O O O O           O O O O O O O O O O O O O O                                       ",
"                              O O O O O O O O O O O O O O O O O O O O O O O O O O O           O O O O O O O O O O O O O O                                       ",
"                              O O O O O O O O O O O O O O O O O O O O O O O O O O O           O O O O O O O O O O O O O O                                       "
};
