/* XPM */
static char *_58a3ddc44324db39f7d19de37a39b3dloTRdnzLJeRs4oUQ[] = {
/* columns rows colors chars-per-pixel */
"80 80 5 1 ",
"  c None",
". c #1B1B1B",
"X c #F2741B",
"o c #FBC41B",
"O c #FFF21B",
/* pixels */
"                                                                                ",
"                                                                                ",
"                                                                                ",
"                                                                                ",
"                                                                                ",
"                                                                                ",
"                                                                                ",
"                                                                                ",
"                                                                                ",
"                                                                                ",
"                                                                                ",
"                                                                                ",
"                                                                                ",
"                                                                                ",
"                                                                                ",
"                         ..............................                         ",
"                         ..............................                         ",
"                         ..............................                         ",
"                         ..............................                         ",
"                         ..............................                         ",
"                    .....OOOOOOOOOOOOOOOOOOOOOOOOOOOOOO.....                    ",
"                    .....OOOOOOOOOOOOOOOOOOOOOOOOOOOOOO.....                    ",
"                    .....OOOOOOOOOOOOOOOOOOOOOOOOOOOOOO.....                    ",
"                    .....OOOOOOOOOOOOOOOOOOOOOOOOOOOOOO.....                    ",
"                    .....OOOOOOOOOOOOOOOOOOOOOOOOOOOOOO.....                    ",
"               .....OOOOOOOOOOoooooooooooooooooooooooooXXXXX.....               ",
"               .....OOOOOOOOOOoooooooooooooooooooooooooXXXXX.....               ",
"               .....OOOOOOOOOOoooooooooooooooooooooooooXXXXX.....               ",
"               .....OOOOOOOOOOoooooooooooooooooooooooooXXXXX.....               ",
"               .....OOOOOOOOOOoooooooooooooooooooooooooXXXXX.....               ",
"               .....OOOOOooooooooooOOOOOOOOOOooooooooooXXXXX.....               ",
"               .....OOOOOooooooooooOOOOOOOOOOooooooooooXXXXX.....               ",
"               .....OOOOOooooooooooOOOOOOOOOOooooooooooXXXXX.....               ",
"               .....OOOOOooooooooooOOOOOOOOOOooooooooooXXXXX.....               ",
"               .....OOOOOooooooooooOOOOOOOOOOooooooooooXXXXX.....               ",
"               .....OOOOOoooooOOOOOooooooooooXXXXXoooooXXXXX.....               ",
"               .....OOOOOoooooOOOOOooooooooooXXXXXoooooXXXXX.....               ",
"               .....OOOOOoooooOOOOOooooooooooXXXXXoooooXXXXX.....               ",
"               .....OOOOOoooooOOOOOooooooooooXXXXXoooooXXXXX.....               ",
"               .....OOOOOoooooOOOOOooooooooooXXXXXoooooXXXXX.....               ",
"               .....OOOOOoooooOOOOOooooooooooXXXXXoooooXXXXX.....               ",
"               .....OOOOOoooooOOOOOooooooooooXXXXXoooooXXXXX.....               ",
"               .....OOOOOoooooOOOOOooooooooooXXXXXoooooXXXXX.....               ",
"               .....OOOOOoooooOOOOOooooooooooXXXXXoooooXXXXX.....               ",
"               .....OOOOOoooooOOOOOooooooooooXXXXXoooooXXXXX.....               ",
"               .....OOOOOooooooooooXXXXXXXXXXooooooooooXXXXX.....               ",
"               .....OOOOOooooooooooXXXXXXXXXXooooooooooXXXXX.....               ",
"               .....OOOOOooooooooooXXXXXXXXXXooooooooooXXXXX.....               ",
"               .....OOOOOooooooooooXXXXXXXXXXooooooooooXXXXX.....               ",
"               .....OOOOOooooooooooXXXXXXXXXXooooooooooXXXXX.....               ",
"               .....OOOOOoooooooooooooooooooooooooXXXXXXXXXX.....               ",
"               .....OOOOOoooooooooooooooooooooooooXXXXXXXXXX.....               ",
"               .....OOOOOoooooooooooooooooooooooooXXXXXXXXXX.....               ",
"               .....OOOOOoooooooooooooooooooooooooXXXXXXXXXX.....               ",
"               .....OOOOOoooooooooooooooooooooooooXXXXXXXXXX.....               ",
"                    .....XXXXXXXXXXXXXXXXXXXXXXXXXXXXXX.....                    ",
"                    .....XXXXXXXXXXXXXXXXXXXXXXXXXXXXXX.....                    ",
"                    .....XXXXXXXXXXXXXXXXXXXXXXXXXXXXXX.....                    ",
"                    .....XXXXXXXXXXXXXXXXXXXXXXXXXXXXXX.....                    ",
"                    .....XXXXXXXXXXXXXXXXXXXXXXXXXXXXXX.....                    ",
"                         ..............................                         ",
"                         ..............................                         ",
"                         ..............................                         ",
"                         ..............................                         ",
"                         ..............................                         ",
"                                                                                ",
"                                                                                ",
"                                                                                ",
"                                                                                ",
"                                                                                ",
"                                                                                ",
"                                                                                ",
"                                                                                ",
"                                                                                ",
"                                                                                ",
"                                                                                ",
"                                                                                ",
"                                                                                ",
"                                                                                ",
"                                                                                "
};
