/* XPM */
static char *_1fb4ad2802e4a7eb670d5775e62be50qRuzyoEHLxq5CrYv[] = {
/* columns rows colors chars-per-pixel */
"80 80 5 1 ",
"  c None",
". c #242B33",
"X c #3D4857",
"o c #636B85",
"O c #AEB4CE",
/* pixels */
"           ............................................................         ",
"           ............................................................         ",
"           ............................................................         ",
"           ............................................................         ",
"           ............................................................         ",
"           ............................................................         ",
"      .....OOOOOOOOOOOOOOOOOOOOOOOOOOOOOOOOOOOOOOOOOOOOOOOOOOOOOOOOOOOO.....    ",
"      .....OOOOOOOOOOOOOOOOOOOOOOOOOOOOOOOOOOOOOOOOOOOOOOOOOOOOOOOOOOOO.....    ",
"      .....OOOOOOOOOOOOOOOOOOOOOOOOOOOOOOOOOOOOOOOOOOOOOOOOOOOOOOOOOOOO.....    ",
"      .....OOOOOOOOOOOOOOOOOOOOOOOOOOOOOOOOOOOOOOOOOOOOOOOOOOOOOOOOOOOO.....    ",
"      .....OOOOOOOOOOOOOOOOOOOOOOOOOOOOOOOOOOOOOOOOOOOOOOOOOOOOOOOOOOOO.....    ",
"......OOOOOOOOOOOOOOOooooo.........................ooooooooooOOOOOOOOOOOOOOO....",
"......OOOOOOOOOOOOOOOooooo.........................ooooooooooOOOOOOOOOOOOOOO....",
"......OOOOOOOOOOOOOOOooooo.........................ooooooooooOOOOOOOOOOOOOOO....",
"......OOOOOOOOOOOOOOOooooo.........................ooooooooooOOOOOOOOOOOOOOO....",
"......OOOOOOOOOOOOOOOooooo.........................ooooooooooOOOOOOOOOOOOOOO....",
"......OOOOOOOOOOooooo.....OOOOOOOOOOOOOOOOOOOOOOOOO.....ooooooooooOOOOOOOOOO....",
"......OOOOOOOOOOooooo.....OOOOOOOOOOOOOOOOOOOOOOOOO.....ooooooooooOOOOOOOOOO....",
"......OOOOOOOOOOooooo.....OOOOOOOOOOOOOOOOOOOOOOOOO.....ooooooooooOOOOOOOOOO....",
"......OOOOOOOOOOooooo.....OOOOOOOOOOOOOOOOOOOOOOOOO.....ooooooooooOOOOOOOOOO....",
"......OOOOOOOOOOooooo.....OOOOOOOOOOOOOOOOOOOOOOOOO.....ooooooooooOOOOOOOOOO....",
"......OOOOOooooo.....OOOOOOOOOOOOOOO.....OOOOOOOOOOOOOOO.....ooooooooooOOOOO....",
"......OOOOOooooo.....OOOOOOOOOOOOOOO.....OOOOOOOOOOOOOOO.....ooooooooooOOOOO....",
"......OOOOOooooo.....OOOOOOOOOOOOOOO.....OOOOOOOOOOOOOOO.....ooooooooooOOOOO....",
"......OOOOOooooo.....OOOOOOOOOOOOOOO.....OOOOOOOOOOOOOOO.....ooooooooooOOOOO....",
"......OOOOOooooo.....OOOOOOOOOOOOOOO.....OOOOOOOOOOOOOOO.....ooooooooooOOOOO....",
"......OOOOOooooo.....OOOOOOOOOO.....ooooo.....OOOOOOOOOO.....ooooooooooOOOOO....",
"......OOOOOooooo.....OOOOOOOOOO.....ooooo.....OOOOOOOOOO.....ooooooooooOOOOO....",
"......OOOOOooooo.....OOOOOOOOOO.....ooooo.....OOOOOOOOOO.....ooooooooooOOOOO....",
"......OOOOOooooo.....OOOOOOOOOO.....ooooo.....OOOOOOOOOO.....ooooooooooOOOOO....",
"......OOOOOooooo.....OOOOOOOOOO.....ooooo.....OOOOOOOOOO.....ooooooooooOOOOO....",
"......OOOOOooooo.....OOOOOOOOOO.....ooooo.....OOOOOOOOOO.....ooooooooooOOOOO....",
"......OOOOOooooo.....OOOOOOOOOO.....ooooo.....OOOOOOOOOO.....ooooooooooOOOOO....",
"......OOOOOooooo.....OOOOOOOOOO.....ooooo.....OOOOOOOOOO.....ooooooooooOOOOO....",
"......OOOOOooooo.....OOOOOOOOOO.....ooooo.....OOOOOOOOOO.....ooooooooooOOOOO....",
"......OOOOOooooo.....OOOOOOOOOO.....ooooo.....OOOOOOOOOO.....ooooooooooOOOOO....",
"......OOOOOoooooooooo..........ooooo.....OOOOOOOOOOOOOOO.....ooooooooooOOOOO....",
"......OOOOOoooooooooo..........ooooo.....OOOOOOOOOOOOOOO.....ooooooooooOOOOO....",
"......OOOOOoooooooooo..........ooooo.....OOOOOOOOOOOOOOO.....ooooooooooOOOOO....",
"......OOOOOoooooooooo..........ooooo.....OOOOOOOOOOOOOOO.....ooooooooooOOOOO....",
"......OOOOOoooooooooo..........ooooo.....OOOOOOOOOOOOOOO.....ooooooooooOOOOO....",
"......XXXXXoooooooooooooooooooo.....OOOOOOOOOOOOOOO.....oooooooooooooooXXXXX....",
"......XXXXXoooooooooooooooooooo.....OOOOOOOOOOOOOOO.....oooooooooooooooXXXXX....",
"......XXXXXoooooooooooooooooooo.....OOOOOOOOOOOOOOO.....oooooooooooooooXXXXX....",
"......XXXXXoooooooooooooooooooo.....OOOOOOOOOOOOOOO.....oooooooooooooooXXXXX....",
"......XXXXXoooooooooooooooooooo.....OOOOOOOOOOOOOOO.....oooooooooooooooXXXXX....",
"......XXXXXoooooooooooooooooooo.....OOOOOOOOOO.....ooooooooooooooooooooXXXXX....",
"......XXXXXoooooooooooooooooooo.....OOOOOOOOOO.....ooooooooooooooooooooXXXXX....",
"......XXXXXoooooooooooooooooooo.....OOOOOOOOOO.....ooooooooooooooooooooXXXXX....",
"......XXXXXoooooooooooooooooooo.....OOOOOOOOOO.....ooooooooooooooooooooXXXXX....",
"......XXXXXoooooooooooooooooooo.....OOOOOOOOOO.....ooooooooooooooooooooXXXXX....",
"......XXXXXooooooooooooooooooooooooo..........oooooooooooooooooooooooooXXXXX....",
"......XXXXXooooooooooooooooooooooooo..........oooooooooooooooooooooooooXXXXX....",
"......XXXXXooooooooooooooooooooooooo..........oooooooooooooooooooooooooXXXXX....",
"......XXXXXooooooooooooooooooooooooo..........oooooooooooooooooooooooooXXXXX....",
"......XXXXXooooooooooooooooooooooooo..........oooooooooooooooooooooooooXXXXX....",
"......XXXXXoooooooooooooooooooo.....OOOOOOOOOO.....ooooooooooooooooooooXXXXX....",
"......XXXXXoooooooooooooooooooo.....OOOOOOOOOO.....ooooooooooooooooooooXXXXX....",
"......XXXXXoooooooooooooooooooo.....OOOOOOOOOO.....ooooooooooooooooooooXXXXX....",
"......XXXXXoooooooooooooooooooo.....OOOOOOOOOO.....ooooooooooooooooooooXXXXX....",
"......XXXXXoooooooooooooooooooo.....OOOOOOOOOO.....ooooooooooooooooooooXXXXX....",
"......XXXXXoooooooooooooooooooo.....OOOOOOOOOO.....ooooooooooooooooooooXXXXX....",
"......XXXXXoooooooooooooooooooo.....OOOOOOOOOO.....ooooooooooooooooooooXXXXX....",
"......XXXXXoooooooooooooooooooo.....OOOOOOOOOO.....ooooooooooooooooooooXXXXX....",
"......XXXXXoooooooooooooooooooo.....OOOOOOOOOO.....ooooooooooooooooooooXXXXX....",
"......XXXXXoooooooooooooooooooo.....OOOOOOOOOO.....ooooooooooooooooooooXXXXX....",
"......XXXXXXXXXXoooooooooooooooooooo..........ooooooooooooooooooooXXXXXXXXXX....",
"......XXXXXXXXXXoooooooooooooooooooo..........ooooooooooooooooooooXXXXXXXXXX....",
"......XXXXXXXXXXoooooooooooooooooooo..........ooooooooooooooooooooXXXXXXXXXX....",
"......XXXXXXXXXXoooooooooooooooooooo..........ooooooooooooooooooooXXXXXXXXXX....",
"......XXXXXXXXXXoooooooooooooooooooo..........ooooooooooooooooooooXXXXXXXXXX....",
"      .....XXXXXXXXXXXXXXXXXXXXXXXXXXXXXXXXXXXXXXXXXXXXXXXXXXXXXXXXXXXX.....    ",
"      .....XXXXXXXXXXXXXXXXXXXXXXXXXXXXXXXXXXXXXXXXXXXXXXXXXXXXXXXXXXXX.....    ",
"      .....XXXXXXXXXXXXXXXXXXXXXXXXXXXXXXXXXXXXXXXXXXXXXXXXXXXXXXXXXXXX.....    ",
"      .....XXXXXXXXXXXXXXXXXXXXXXXXXXXXXXXXXXXXXXXXXXXXXXXXXXXXXXXXXXXX.....    ",
"      .....XXXXXXXXXXXXXXXXXXXXXXXXXXXXXXXXXXXXXXXXXXXXXXXXXXXXXXXXXXXX.....    ",
"           ............................................................         ",
"           ............................................................         ",
"           ............................................................         ",
"           ............................................................         "
};
