/* XPM */
static char *_a5bf13b4a314446a2595b48af72beb4TGYvKsPe0cKda7u9[] = {
/* columns rows colors chars-per-pixel */
"80 80 5 1 ",
"  c None",
". c #231C19",
"X c #67332D",
"o c #B66B3A",
"O c #D89E58",
/* pixels */
"          .................................................................     ",
"          .................................................................     ",
"          .................................................................     ",
"          .................................................................     ",
"          .................................................................     ",
"     .....OOOOOOOOOOOOOOOOOOOOOOOOOOOOOOOOOOO...............OOOOOOOOOOOOOOO.....",
"     .....OOOOOOOOOOOOOOOOOOOOOOOOOOOOOOOOOOO...............OOOOOOOOOOOOOOO.....",
"     .....OOOOOOOOOOOOOOOOOOOOOOOOOOOOOOOOOOO...............OOOOOOOOOOOOOOO.....",
"     .....OOOOOOOOOOOOOOOOOOOOOOOOOOOOOOOOOOO...............OOOOOOOOOOOOOOO.....",
"     .....OOOOOOOOOOOOOOOOOOOOOOOOOOOOOOOOOOO...............OOOOOOOOOOOOOOO.....",
".....OOOOOooooooooooOOOOOooooooooooooooooooooOOOOO.....OOOOOooooooooooOOOOO.....",
".....OOOOOooooooooooOOOOOooooooooooooooooooooOOOOO.....OOOOOooooooooooOOOOO.....",
".....OOOOOooooooooooOOOOOooooooooooooooooooooOOOOO.....OOOOOooooooooooOOOOO.....",
".....OOOOOooooooooooOOOOOooooooooooooooooooooOOOOO.....OOOOOooooooooooOOOOO.....",
".....OOOOOooooooooooOOOOOooooooooooooooooooooOOOOO.....OOOOOooooooooooOOOOO.....",
".....OOOOOooooooooooooooooooooXXXXXooooooooooXXXXX.....OOOOOoooooXXXXXXXXXX.....",
".....OOOOOooooooooooooooooooooXXXXXooooooooooXXXXX.....OOOOOoooooXXXXXXXXXX.....",
".....OOOOOooooooooooooooooooooXXXXXooooooooooXXXXX.....OOOOOoooooXXXXXXXXXX.....",
".....OOOOOooooooooooooooooooooXXXXXooooooooooXXXXX.....OOOOOoooooXXXXXXXXXX.....",
".....OOOOOooooooooooooooooooooXXXXXooooooooooXXXXX.....OOOOOoooooXXXXXXXXXX.....",
".....OOOOOoooooXXXXXXXXXXoooooooooooooooXXXXX..........OOOOOXXXXXXXXXX..........",
".....OOOOOoooooXXXXXXXXXXoooooooooooooooXXXXX..........OOOOOXXXXXXXXXX..........",
".....OOOOOoooooXXXXXXXXXXoooooooooooooooXXXXX..........OOOOOXXXXXXXXXX..........",
".....OOOOOoooooXXXXXXXXXXoooooooooooooooXXXXX..........OOOOOXXXXXXXXXX..........",
".....OOOOOoooooXXXXXXXXXXoooooooooooooooXXXXX..........OOOOOXXXXXXXXXX..........",
".....OOOOOoooooXXXXXXXXXXooooooooooXXXXXXXXXX...................................",
".....OOOOOoooooXXXXXXXXXXooooooooooXXXXXXXXXX...................................",
".....OOOOOoooooXXXXXXXXXXooooooooooXXXXXXXXXX...................................",
".....OOOOOoooooXXXXXXXXXXooooooooooXXXXXXXXXX...................................",
".....OOOOOoooooXXXXXXXXXXooooooooooXXXXXXXXXX...................................",
"..........XXXXXXXXXXXXXXXXXXXXXXXXXXXXXX..........OOOOOOOOOOOOOOOOOOOOOOOOO.....",
"..........XXXXXXXXXXXXXXXXXXXXXXXXXXXXXX..........OOOOOOOOOOOOOOOOOOOOOOOOO.....",
"..........XXXXXXXXXXXXXXXXXXXXXXXXXXXXXX..........OOOOOOOOOOOOOOOOOOOOOOOOO.....",
"..........XXXXXXXXXXXXXXXXXXXXXXXXXXXXXX..........OOOOOOOOOOOOOOOOOOOOOOOOO.....",
"..........XXXXXXXXXXXXXXXXXXXXXXXXXXXXXX..........OOOOOOOOOOOOOOOOOOOOOOOOO.....",
".............................................OOOOOooooooooooOOOOOoooooOOOOO.....",
".............................................OOOOOooooooooooOOOOOoooooOOOOO.....",
".............................................OOOOOooooooooooOOOOOoooooOOOOO.....",
".............................................OOOOOooooooooooOOOOOoooooOOOOO.....",
".............................................OOOOOooooooooooOOOOOoooooOOOOO.....",
"..........OOOOOOOOOOOOOOO...............OOOOOoooooOOOOOoooooooooooooooXXXXX.....",
"..........OOOOOOOOOOOOOOO...............OOOOOoooooOOOOOoooooooooooooooXXXXX.....",
"..........OOOOOOOOOOOOOOO...............OOOOOoooooOOOOOoooooooooooooooXXXXX.....",
"..........OOOOOOOOOOOOOOO...............OOOOOoooooOOOOOoooooooooooooooXXXXX.....",
"..........OOOOOOOOOOOOOOO...............OOOOOoooooOOOOOoooooooooooooooXXXXX.....",
".....OOOOOoooooXXXXXoooooOOOOO.....OOOOOooooooooooooooooooooXXXXXXXXXXXXXXX.....",
".....OOOOOoooooXXXXXoooooOOOOO.....OOOOOooooooooooooooooooooXXXXXXXXXXXXXXX.....",
".....OOOOOoooooXXXXXoooooOOOOO.....OOOOOooooooooooooooooooooXXXXXXXXXXXXXXX.....",
".....OOOOOoooooXXXXXoooooOOOOO.....OOOOOooooooooooooooooooooXXXXXXXXXXXXXXX.....",
".....OOOOOoooooXXXXXoooooOOOOO.....OOOOOooooooooooooooooooooXXXXXXXXXXXXXXX.....",
".....OOOOOoooooooooooooooXXXXX.....OOOOOOOOOOOOOOOooooooooooXXXXXXXXXXXXXXX.....",
".....OOOOOoooooooooooooooXXXXX.....OOOOOOOOOOOOOOOooooooooooXXXXXXXXXXXXXXX.....",
".....OOOOOoooooooooooooooXXXXX.....OOOOOOOOOOOOOOOooooooooooXXXXXXXXXXXXXXX.....",
".....OOOOOoooooooooooooooXXXXX.....OOOOOOOOOOOOOOOooooooooooXXXXXXXXXXXXXXX.....",
".....OOOOOoooooooooooooooXXXXX.....OOOOOOOOOOOOOOOooooooooooXXXXXXXXXXXXXXX.....",
".....OOOOOOOOOOOOOOOoooooXXXXX.....OOOOOOOOOOOOOOOooooooooooooooooooooXXXXX.....",
".....OOOOOOOOOOOOOOOoooooXXXXX.....OOOOOOOOOOOOOOOooooooooooooooooooooXXXXX.....",
".....OOOOOOOOOOOOOOOoooooXXXXX.....OOOOOOOOOOOOOOOooooooooooooooooooooXXXXX.....",
".....OOOOOOOOOOOOOOOoooooXXXXX.....OOOOOOOOOOOOOOOooooooooooooooooooooXXXXX.....",
".....OOOOOOOOOOOOOOOoooooXXXXX.....OOOOOOOOOOOOOOOooooooooooooooooooooXXXXX.....",
".....OOOOOOOOOOOOOOOoooooXXXXX.....OOOOOoooooooooooooooXXXXXoooooXXXXXXXXXX.....",
".....OOOOOOOOOOOOOOOoooooXXXXX.....OOOOOoooooooooooooooXXXXXoooooXXXXXXXXXX.....",
".....OOOOOOOOOOOOOOOoooooXXXXX.....OOOOOoooooooooooooooXXXXXoooooXXXXXXXXXX.....",
".....OOOOOOOOOOOOOOOoooooXXXXX.....OOOOOoooooooooooooooXXXXXoooooXXXXXXXXXX.....",
".....OOOOOOOOOOOOOOOoooooXXXXX.....OOOOOoooooooooooooooXXXXXoooooXXXXXXXXXX.....",
".....OOOOOooooooooooXXXXXXXXXX.....OOOOOooooooooooooooooooooXXXXXXXXXXXXXXX.....",
".....OOOOOooooooooooXXXXXXXXXX.....OOOOOooooooooooooooooooooXXXXXXXXXXXXXXX.....",
".....OOOOOooooooooooXXXXXXXXXX.....OOOOOooooooooooooooooooooXXXXXXXXXXXXXXX.....",
".....OOOOOooooooooooXXXXXXXXXX.....OOOOOooooooooooooooooooooXXXXXXXXXXXXXXX.....",
".....OOOOOooooooooooXXXXXXXXXX.....OOOOOooooooooooooooooooooXXXXXXXXXXXXXXX.....",
".....OOOOOXXXXXXXXXXXXXXX..........XXXXXXXXXXXXXXXXXXXXXXXXXXXXXXXXXXX.....     ",
".....OOOOOXXXXXXXXXXXXXXX..........XXXXXXXXXXXXXXXXXXXXXXXXXXXXXXXXXXX.....     ",
".....OOOOOXXXXXXXXXXXXXXX..........XXXXXXXXXXXXXXXXXXXXXXXXXXXXXXXXXXX.....     ",
".....OOOOOXXXXXXXXXXXXXXX..........XXXXXXXXXXXXXXXXXXXXXXXXXXXXXXXXXXX.....     ",
".....OOOOOXXXXXXXXXXXXXXX..........XXXXXXXXXXXXXXXXXXXXXXXXXXXXXXXXXXX.....     ",
"     .................................................................          ",
"     .................................................................          ",
"     .................................................................          ",
"     .................................................................          ",
"     .................................................................          "
};
